svg/business/VIP_1_fill.svg

<?xml version="1.0" encoding="UTF-8"?>
<svg width="24px" height="24px" viewBox="0 0 24 24" version="1.1" xmlns="http://www.w3.org/2000/svg" xmlns:xlink="http://www.w3.org/1999/xlink">
    <title>VIP_1_fill</title>
    <g id="页面-1" stroke="none" stroke-width="1" fill="none" fill-rule="evenodd">
        <g id="Business" transform="translate(-144.000000, -240.000000)">
            <g id="VIP_1_fill" transform="translate(144.000000, 240.000000)">
                <path d="M24,0 L24,24 L0,24 L0,0 L24,0 Z M12.5934901,23.257841 L12.5819402,23.2595131 L12.5108777,23.2950439 L12.4918791,23.2987469 L12.4918791,23.2987469 L12.4767152,23.2950439 L12.4056548,23.2595131 C12.3958229,23.2563662 12.3870493,23.2590235 12.3821421,23.2649074 L12.3780323,23.275831 L12.360941,23.7031097 L12.3658947,23.7234994 L12.3769048,23.7357139 L12.4804777,23.8096931 L12.4953491,23.8136134 L12.4953491,23.8136134 L12.5071152,23.8096931 L12.6106902,23.7357139 L12.6232938,23.7196733 L12.6232938,23.7196733 L12.6266527,23.7031097 L12.609561,23.275831 C12.6075724,23.2657013 12.6010112,23.2592993 12.5934901,23.257841 L12.5934901,23.257841 Z M12.8583906,23.1452862 L12.8445485,23.1473072 L12.6598443,23.2396597 L12.6498822,23.2499052 L12.6498822,23.2499052 L12.6471943,23.2611114 L12.6650943,23.6906389 L12.6699349,23.7034178 L12.6699349,23.7034178 L12.678386,23.7104931 L12.8793402,23.8032389 C12.8914285,23.8068999 12.9022333,23.8029875 12.9078286,23.7952264 L12.9118235,23.7811639 L12.8776777,23.1665331 C12.8752882,23.1545897 12.8674102,23.1470016 12.8583906,23.1452862 L12.8583906,23.1452862 Z M12.1430473,23.1473072 C12.1332178,23.1423925 12.1221763,23.1452606 12.1156365,23.1525954 L12.1099173,23.1665331 L12.0757714,23.7811639 C12.0751323,23.7926639 12.0828099,23.8018602 12.0926481,23.8045676 L12.108256,23.8032389 L12.3092106,23.7104931 L12.3186497,23.7024347 L12.3186497,23.7024347 L12.3225043,23.6906389 L12.340401,23.2611114 L12.337245,23.2485176 L12.337245,23.2485176 L12.3277531,23.2396597 L12.1430473,23.1473072 Z" id="MingCute" fill-rule="nonzero"></path>
                <path d="M17.4196,3 C18.0820923,3 18.6977207,3.32768095 19.068595,3.86821775 L19.1561,4.00772 L22.4892,9.8407 C22.9087313,10.5748562 22.8189363,11.4870789 22.2805422,12.1236875 L22.1669,12.2472 L12.8838,21.5303 C12.42824,21.9859533 11.7083849,22.0163302 11.2175042,21.6214307 L11.116,21.5303 L1.8329,12.2472 C1.23501875,11.6492625 1.08163555,10.7456414 1.43350204,9.98976995 L1.51063,9.8407 L4.84376,4.00772 C5.17245846,3.43250462 5.76239337,3.06057633 6.41571385,3.00676024 L6.58025,3 L17.4196,3 Z M7.29283,9.29289 C6.90231,9.68342 6.90231,10.3166 7.29283,10.7071 L11.1161,14.5303 C11.6042,15.0185 12.3957,15.0185 12.8838,14.5303 L16.707,10.7071 C17.0976,10.3166 17.0976,9.68342 16.707,9.29289 C16.3165,8.90237 15.6834,8.90237 15.2928,9.29289 L11.9999,12.5858 L8.70705,9.29289 C8.31652,8.90237 7.68336,8.90237 7.29283,9.29289 Z" id="形状" fill="#09244B"></path>
            </g>
        </g>
    </g>
</svg>

<svg xmlns="http://www.w3.org/2000/svg" width="24" height="24"><g fill="none" fill-rule="evenodd"><path d="M24 0v24H0V0zM12.593 23.258l-.011.002-.071.035-.02.004-.014-.004-.071-.035c-.01-.004-.019-.001-.024.005l-.004.01-.017.428.005.02.01.013.104.074.015.004.012-.004.104-.074.012-.016.004-.017-.017-.427c-.002-.01-.009-.017-.017-.018m.265-.113-.013.002-.185.093-.01.01-.003.011.018.43.005.012.008.007.201.093c.012.004.023 0 .029-.008l.004-.014-.034-.614c-.003-.012-.01-.02-.02-.022m-.715.002a.023.023 0 0 0-.027.006l-.006.014-.034.614c0 .012.007.02.017.024l.015-.002.201-.093.01-.008.004-.011.017-.43-.003-.012-.01-.01z"/><path fill="#09244B" d="M17.42 3a2 2 0 0 1 1.649.868l.087.14L22.49 9.84a2 2 0 0 1-.208 2.283l-.114.123-9.283 9.283a1.25 1.25 0 0 1-1.666.091l-.102-.09-9.283-9.284a2 2 0 0 1-.4-2.257l.078-.15 3.333-5.832a2 2 0 0 1 1.572-1.001L6.58 3zM7.293 9.293a1 1 0 0 0 0 1.414l3.823 3.823a1.25 1.25 0 0 0 1.768 0l3.823-3.823a1 1 0 1 0-1.414-1.414L12 12.586 8.707 9.293a1 1 0 0 0-1.414 0"/></g></svg>
